assets/icon/arrow-circle-down-right.svg

<svg width="48" height="48" viewBox="0 0 48 48" fill="none" xmlns="http://www.w3.org/2000/svg">
<path d="M0 24C0 10.7452 10.7452 0 24 0V0C37.2548 0 48 10.7452 48 24V24C48 37.2548 37.2548 48 24 48V48C10.7452 48 0 37.2548 0 24V24Z" fill="#F3F4F7"/>
<path d="M14.9393 14.9392C15.5251 14.3534 16.4746 14.3534 17.0604 14.9392L30.5067 28.3855V19.0476C30.5068 18.2193 31.1784 17.5477 32.0067 17.5476C32.8351 17.5476 33.5067 18.2192 33.5067 19.0476V31.9998C33.5067 32.8282 32.8352 33.4998 32.0067 33.4998H19.0546C18.2261 33.4998 17.5546 32.8282 17.5546 31.9998C17.5547 31.1714 18.2262 30.4998 19.0546 30.4998H28.3788L14.9393 17.0603C14.3536 16.4745 14.3536 15.525 14.9393 14.9392Z" fill="#0F1117"/>
</svg>

<svg width="48" height="48" fill="none" xmlns="http://www.w3.org/2000/svg"><path d="M0 24C0 10.745 10.745 0 24 0s24 10.745 24 24-10.745 24-24 24S0 37.255 0 24z" fill="#F3F4F7"/><path d="M14.94 14.94a1.5 1.5 0 0 1 2.12 0l13.447 13.446v-9.338a1.5 1.5 0 0 1 3 0V32a1.5 1.5 0 0 1-1.5 1.5H19.055a1.5 1.5 0 1 1 0-3h9.324l-13.44-13.44a1.5 1.5 0 0 1 0-2.12z" fill="#0F1117"/></svg>
